X: 22296
T: La Reel Des Acadiens
R: reel
M: 4/4
K: Gmajor
|:ge|d2(3Bcd gd (3Bcd|ed (3Bcd edge|d2(3Bcd edge|dBGB A2ge|
d2(3Bcd gd (3Bcd|edBd edge|d2(3Bcd edge|dBAB G2:|
|:BA|GABc d3g|edge dBAB|GABc d3g|edBG A2BA|
GABc d3g|edge dBAB|GABc d2ge|dBAB G2:|

